X:1
%
T:Rose Division
M:C|
L:1/8
D:Rounder 0024, Hollow Rock String Band (1974)
Z:Transcribed by Andy Kuntz
K:C
cd|e2G2e2ed|c2ae ga g2|GABc dedB|c2ae ga g2|
e2G2e2ed|c2ae ga g2|GABc dedB|1[Gc]c2[Gc] [G2c2]cd:|2 [Gc]c2[Gc] [G2c2]g2||
a2b2c'2c'g|a2g/a/g edcA|GABc dedB|cdcA G2 g2|
a2b2c'2c'g|a2g/a/g edcA|GABc dedB|1[Gc]c2[Gc] [G2c2]cd:|2 [Gc]c2[Gc] [G2c2]g2||

